X: 20796
T: Johnny Mickey's
R: slide
M: 12/8
K: Dmajor
|:FGF F2 E D3 D2 E|FGF F2 D E3 E2 F|
GFG B2 G FEF A2 F|EDE F2 E D3 D3:|
|:ABd A2 F A3 A2 F|ABd A2 F G3 G2 F|
GFG B2 G FEF A2 F|EDE F2 E D3 D3:|

